;FLAVOR:Marlin
;TIME:1031
;Filament used: 1.11048m
;Layer height: 0.15
;MINX:82.125
;MINY:161.963
;MINZ:0.3
;MAXX:119.416
;MAXY:199.257
;MAXZ:15
;Generated with Cura_SteamEngine 4.13.0
M140 S60
M105
M190 S60
M104 S200
M105
M109 S200
M82 ;absolute extrusion mode
G21 ;metric values
G90 ;absolute positioning
M82 ;set extruder to absolute mode
M107 ;start with the fan off
G28 X0 Y0 ;move X/Y to min endstops
M300 S1318 P266
G28 Z0 ;move Z to min endstops
G0 Z0.2
G92 E0 ;zero the extruded length
G1 X40 E25 F400 ; Extrude 25mm of filament in a 4cm line. Reduce speed (F) if you have a nozzle smaller than 0.4mm!
G92 E0 ;zero the extruded length again
G1 E-1 F500 ; Retract a little
G1 X80 F4000 ; Quickly wipe away from the filament line
M117 ; Printing…
G5
G92 E0
G92 E0
G1 F1500 E-6.5
;LAYER_COUNT:99
;LAYER:0
M107
G1 F600 Z1.3
G0 F3600 X95.539 Y162.885 Z1.3
;TYPE:SKIRT
G1 F600 Z0.3
G1 F1500 E0
G1 F1800 X96.062 Y162.593 E0.04483
G1 X96.62 Y162.373 E0.08971
G1 X97.477 Y162.19 E0.15529
G1 X98.11 Y162.118 E0.20297
G1 X98.983 Y162.041 E0.26855
G1 X99.74 Y161.986 E0.32535
G1 X100 Y161.974 E0.34483
G1 X100.777 Y161.963 E0.40298
G1 X100.905 Y161.963 E0.41256
G1 X101.603 Y161.973 E0.4648
G1 X102.157 Y162.007 E0.50634
G1 X102.615 Y162.051 E0.54077
G1 X103.567 Y162.153 E0.61242
G1 X104.13 Y162.226 E0.65491
G1 X104.718 Y162.343 E0.69977
G1 X105.285 Y162.537 E0.74462
G1 X105.822 Y162.804 E0.7895
G1 X106.514 Y163.302 E0.8533
G1 X106.962 Y163.694 E0.89785
G1 X109.042 Y165.468 E1.10243
G1 X110.346 Y166.529 E1.22824
G1 X111.216 Y167.218 E1.31129
G1 X111.702 Y167.613 E1.35816
G1 X111.905 Y167.788 E1.37822
G1 X112.54 Y168.37 E1.44268
G1 X113.062 Y168.893 E1.49797
G1 X113.669 Y169.567 E1.56585
G1 X114.012 Y169.971 E1.60551
G1 X114.092 Y170.068 E1.61492
G1 X114.669 Y170.795 E1.68438
G1 X116.379 Y172.886 E1.88652
G1 X117.184 Y173.809 E1.97818
G1 X117.232 Y173.872 E1.9841
G1 X118.116 Y174.905 E2.08585
G1 X118.475 Y175.386 E2.13077
G1 X118.766 Y175.91 E2.17562
G1 X118.986 Y176.468 E2.22051
G1 X119.15 Y177.18 E2.27519
G1 X119.212 Y177.623 E2.30866
G1 X119.313 Y178.522 E2.37636
G1 X119.359 Y179.058 E2.41662
G1 X119.368 Y179.185 E2.42615
G1 X119.398 Y179.731 E2.46707
G1 X119.404 Y179.889 E2.4789
G1 X119.416 Y180.582 E2.53077
G1 X119.407 Y181.289 E2.58368
G1 X119.373 Y181.931 E2.6318
G1 X119.252 Y183.104 E2.72004
G1 X119.223 Y183.339 E2.73776
G1 X119.133 Y183.999 E2.78761
G1 X119.012 Y184.586 E2.83246
G1 X118.815 Y185.153 E2.87738
G1 X118.544 Y185.688 E2.92226
G1 X118.11 Y186.297 E2.97823
G1 X117.672 Y186.814 E3.02893
G1 X116.663 Y187.976 E3.1441
G1 X114.188 Y191.027 E3.4381
G1 X113.547 Y191.795 E3.51296
G1 X113.059 Y192.333 E3.56732
G1 X112.427 Y192.958 E3.63384
G1 X111.865 Y193.47 E3.69073
G1 X110.706 Y194.417 E3.80274
G1 X109.105 Y195.713 E3.95688
G1 X107.53 Y197.081 E4.113
G1 X106.482 Y197.975 E4.21609
G1 X106.001 Y198.332 E4.26092
G1 X105.477 Y198.623 E4.30577
G1 X104.918 Y198.842 E4.3507
G1 X104.053 Y199.024 E4.41685
G1 X103.025 Y199.136 E4.49424
G1 X102.501 Y199.183 E4.53361
G1 X101.891 Y199.23 E4.57939
G1 X101.616 Y199.242 E4.59999
G1 X100.6 Y199.257 E4.67603
G1 X99.945 Y199.248 E4.72505
G1 X99.36 Y199.212 E4.76891
G1 X99.045 Y199.183 E4.79259
G1 X98.169 Y199.089 E4.85852
G1 X97.453 Y199.003 E4.91249
G1 X96.864 Y198.892 E4.95734
G1 X96.295 Y198.703 E5.00221
G1 X95.756 Y198.441 E5.04706
G1 X95.046 Y197.938 E5.11217
G1 X93.868 Y196.919 E5.22874
G1 X91.726 Y195.124 E5.43788
G1 X90.586 Y194.21 E5.54722
G1 X90.282 Y193.969 E5.57625
G1 X89.834 Y193.604 E5.6195
G1 X89.636 Y193.433 E5.63908
G1 X89.002 Y192.852 E5.70343
G1 X88.479 Y192.328 E5.75884
G1 X87.872 Y191.654 E5.82671
G1 X87.497 Y191.212 E5.87009
G1 X87.419 Y191.117 E5.87929
G1 X86.8 Y190.338 E5.95375
G1 X85.091 Y188.248 E6.15579
G1 X84.361 Y187.411 E6.2389
G1 X84.285 Y187.312 E6.24824
G1 X83.437 Y186.324 E6.34568
G1 X83.078 Y185.844 E6.39054
G1 X82.785 Y185.32 E6.43546
G1 X82.565 Y184.763 E6.48028
G1 X82.393 Y184.008 E6.53823
G1 X82.317 Y183.406 E6.58364
G1 X82.243 Y182.725 E6.6349
G1 X82.17 Y181.956 E6.69271
G1 X82.153 Y181.701 E6.71183
G1 X82.133 Y181.173 E6.75137
G1 X82.13 Y181.043 E6.76111
G1 X82.125 Y180.387 E6.8102
G1 X82.135 Y179.709 E6.86094
G1 X82.168 Y179.167 E6.90158
G1 X82.278 Y178.193 E6.97493
G1 X82.318 Y177.876 E6.99884
G1 X82.416 Y177.191 E7.05063
G1 X82.541 Y176.604 E7.09554
G1 X82.742 Y176.039 E7.14042
G1 X83.016 Y175.506 E7.18527
G1 X83.451 Y174.904 E7.24085
G1 X84.224 Y174 E7.32986
G1 X84.59 Y173.583 E7.37138
G1 X86.303 Y171.516 E7.57228
G1 X87.283 Y170.279 E7.69038
G1 X87.995 Y169.425 E7.77359
G1 X88.486 Y168.883 E7.82832
G1 X89.116 Y168.261 E7.89457
G1 X89.677 Y167.751 E7.95131
G1 X91.007 Y166.664 E8.07985
G1 X92.456 Y165.49 E8.21941
G1 X94.011 Y164.141 E8.37347
G1 X95.058 Y163.244 E8.47665
G1 X95.539 Y162.885 E8.52156
G0 F3600 X95.897 Y163.367
G1 F1800 X96.389 Y163.103 E8.56335
G1 X96.913 Y162.911 E8.60511
G1 X97.545 Y162.786 E8.65332
G1 X98.283 Y162.703 E8.7089
G1 X99.09 Y162.634 E8.76951
G1 X99.783 Y162.584 E8.82151
G1 X100.009 Y162.574 E8.83844
G1 X100.897 Y162.563 E8.9049
G1 X101.595 Y162.573 E8.95714
G1 X102.099 Y162.604 E8.99492
G1 X102.552 Y162.648 E9.02898
G1 X103.489 Y162.748 E9.0995
G1 X104.052 Y162.821 E9.14199
G1 X104.6 Y162.933 E9.18385
G1 X105.125 Y163.121 E9.22558
G1 X105.618 Y163.382 E9.26732
G1 X106.119 Y163.754 E9.31402
G1 X106.544 Y164.126 E9.35629
G1 X108.653 Y165.925 E9.56373
G1 X109.967 Y166.994 E9.6905
G1 X110.838 Y167.684 E9.77366
G1 X111.324 Y168.079 E9.82052
G1 X111.499 Y168.23 E9.83782
G1 X112.134 Y168.812 E9.90228
G1 X112.616 Y169.294 E9.95329
G1 X113.223 Y169.968 E10.02117
G1 X113.553 Y170.357 E10.05935
G1 X113.622 Y170.441 E10.06748
G1 X114.19 Y171.156 E10.13582
G1 X115.931 Y173.286 E10.34169
G1 X116.732 Y174.204 E10.43286
G1 X116.773 Y174.259 E10.438
G1 X117.66 Y175.295 E10.54006
G1 X117.992 Y175.744 E10.58185
G1 X118.256 Y176.236 E10.62363
G1 X118.447 Y176.761 E10.66544
G1 X118.556 Y177.267 E10.70418
G1 X118.616 Y177.69 E10.73615
G1 X118.728 Y178.7 E10.8122
G1 X118.769 Y179.218 E10.85108
G1 X118.799 Y179.764 E10.892
G1 X118.804 Y179.901 E10.90226
G1 X118.816 Y180.575 E10.95271
G1 X118.81 Y181.154 E10.99604
G1 X118.776 Y181.87 E11.04968
G1 X118.656 Y183.032 E11.13711
G1 X118.628 Y183.258 E11.15415
G1 X118.538 Y183.918 E11.204
G1 X118.423 Y184.464 E11.24575
G1 X118.232 Y184.989 E11.28756
G1 X117.967 Y185.48 E11.32932
G1 X117.652 Y185.909 E11.36914
G1 X117.219 Y186.421 E11.41933
G1 X116.197 Y187.597 E11.53592
G1 X113.803 Y190.549 E11.82035
G1 X113.727 Y190.643 E11.8294
G1 X113.086 Y191.411 E11.90426
G1 X112.637 Y191.906 E11.95427
G1 X112.005 Y192.531 E12.02079
G1 X111.485 Y193.005 E12.07344
G1 X110.328 Y193.951 E12.18528
G1 X108.726 Y195.247 E12.33949
G1 X107.141 Y196.624 E12.49661
G1 X106.093 Y197.518 E12.5997
G1 X105.644 Y197.849 E12.64144
G1 X105.151 Y198.112 E12.68326
G1 X104.627 Y198.303 E12.725
G1 X103.987 Y198.428 E12.7738
G1 X102.972 Y198.538 E12.8502
G1 X102.455 Y198.584 E12.88904
G1 X101.845 Y198.631 E12.93483
G1 X101.607 Y198.643 E12.95266
G1 X100.724 Y198.657 E13.01875
G1 X99.953 Y198.648 E13.07645
G1 X99.415 Y198.615 E13.11679
G1 X99.109 Y198.586 E13.13979
G1 X98.241 Y198.493 E13.20512
G1 X97.525 Y198.407 E13.25909
G1 X96.977 Y198.301 E13.30086
G1 X96.45 Y198.118 E13.3426
G1 X95.954 Y197.861 E13.38441
G1 X95.438 Y197.485 E13.43219
G1 X94.234 Y196.442 E13.5514
G1 X92.143 Y194.689 E13.75559
G1 X90.962 Y193.741 E13.86893
G1 X90.661 Y193.504 E13.89759
G1 X90.213 Y193.139 E13.94084
G1 X90.041 Y192.99 E13.95787
G1 X89.407 Y192.409 E14.02222
G1 X88.925 Y191.927 E14.07324
G1 X88.318 Y191.253 E14.14111
G1 X87.956 Y190.826 E14.18301
G1 X87.303 Y190.006 E14.26145
G1 X85.539 Y187.848 E14.47004
G1 X84.813 Y187.016 E14.55267
G1 X84.747 Y186.929 E14.56084
G1 X83.892 Y185.933 E14.65907
G1 X83.56 Y185.484 E14.70086
G1 X83.295 Y184.993 E14.74262
G1 X83.103 Y184.469 E14.78438
G1 X82.988 Y183.926 E14.82592
G1 X82.912 Y183.335 E14.87051
G1 X82.84 Y182.669 E14.92064
G1 X82.767 Y181.9 E14.97845
G1 X82.753 Y181.679 E14.99502
G1 X82.73 Y181.038 E15.04302
G1 X82.725 Y180.395 E15.09114
G1 X82.732 Y179.831 E15.13335
G1 X82.764 Y179.234 E15.17809
G1 X82.873 Y178.268 E15.25084
G1 X82.912 Y177.961 E15.274
G1 X83.01 Y177.276 E15.32578
G1 X83.129 Y176.73 E15.3676
G1 X83.324 Y176.207 E15.40937
G1 X83.592 Y175.717 E15.45117
G1 X83.907 Y175.294 E15.49064
G1 X84.675 Y174.396 E15.57907
G1 X85.045 Y173.974 E15.62107
G1 X86.789 Y171.87 E15.82558
G1 X87.818 Y170.573 E15.94948
G1 X88.533 Y169.719 E16.03283
G1 X88.908 Y169.31 E16.07435
G1 X89.538 Y168.688 E16.14061
G1 X90.057 Y168.216 E16.1931
G1 X91.385 Y167.13 E16.32149
G1 X92.835 Y165.955 E16.46115
G1 X94.402 Y164.596 E16.61638
G1 X95.449 Y163.699 E16.71955
G1 X95.897 Y163.367 E16.76128
G0 F3600 X96.254 Y163.852
G1 F1800 X96.71 Y163.618 E16.79964
G1 X97.198 Y163.457 E16.83809
G1 X97.613 Y163.382 E16.86965
G1 X98.335 Y163.301 E16.92402
G1 X99.134 Y163.233 E16.98403
G1 X99.827 Y163.183 E17.03603
G1 X100.017 Y163.174 E17.05026
G1 X100.888 Y163.163 E17.11545
G1 X101.586 Y163.173 E17.16769
G1 X102.457 Y163.241 E17.23307
G1 X103.412 Y163.343 E17.30494
G1 X103.975 Y163.416 E17.34743
G1 X104.478 Y163.522 E17.3859
G1 X104.958 Y163.704 E17.42431
G1 X105.404 Y163.958 E17.46272
G1 X105.724 Y164.205 E17.49297
G1 X106.187 Y164.61 E17.53901
G1 X108.287 Y166.401 E17.74556
G1 X109.553 Y167.431 E17.86769
G1 X110.459 Y168.149 E17.9542
G1 X110.945 Y168.544 E18.00107
G1 X111.094 Y168.672 E18.01577
G1 X111.729 Y169.254 E18.08023
G1 X112.17 Y169.696 E18.12696
G1 X112.851 Y170.454 E18.20321
G1 X113.152 Y170.815 E18.23839
G1 X113.702 Y171.508 E18.30459
G1 X115.454 Y173.652 E18.5118
G1 X116.28 Y174.598 E18.60578
G1 X116.327 Y174.661 E18.61166
G1 X117.204 Y175.686 E18.71261
G1 X117.507 Y176.1 E18.75101
G1 X117.741 Y176.557 E18.78943
G1 X117.902 Y177.045 E18.82789
G1 X118.005 Y177.647 E18.87359
G1 X118.019 Y177.757 E18.88189
G1 X118.13 Y178.75 E18.95666
G1 X118.17 Y179.251 E18.99428
G1 X118.2 Y179.797 E19.0352
G1 X118.215 Y180.47 E19.08557
G1 X118.216 Y180.569 E19.09298
G1 X118.21 Y181.148 E19.13632
G1 X118.179 Y181.809 E19.18584
G1 X118.061 Y182.959 E19.27235
G1 X118.034 Y183.177 E19.28879
G1 X117.944 Y183.837 E19.33864
G1 X117.835 Y184.339 E19.37708
G1 X117.65 Y184.817 E19.41544
G1 X117.392 Y185.262 E19.45393
G1 X117.194 Y185.522 E19.47839
G1 X116.766 Y186.028 E19.52798
G1 X115.732 Y187.219 E19.64601
G1 X113.392 Y190.101 E19.92383
G1 X113.267 Y190.259 E19.93891
G1 X112.626 Y191.027 E20.01377
G1 X112.215 Y191.479 E20.05949
G1 X111.501 Y192.183 E20.13452
G1 X111.105 Y192.541 E20.17447
G1 X109.951 Y193.484 E20.286
G1 X108.336 Y194.791 E20.44148
G1 X106.752 Y196.168 E20.59855
G1 X105.704 Y197.062 E20.70163
G1 X105.288 Y197.363 E20.74006
G1 X104.831 Y197.597 E20.77848
G1 X104.343 Y197.757 E20.81691
G1 X103.922 Y197.831 E20.8489
G1 X102.918 Y197.941 E20.92449
G1 X102.409 Y197.986 E20.96273
G1 X101.799 Y198.033 E21.00851
G1 X101.597 Y198.043 E21.02365
G1 X100.617 Y198.057 E21.09699
G1 X99.962 Y198.048 E21.14601
G1 X99.22 Y197.994 E21.20169
G1 X98.312 Y197.897 E21.27003
G1 X97.596 Y197.811 E21.32399
G1 X97.093 Y197.711 E21.36237
G1 X96.611 Y197.533 E21.40082
G1 X96.163 Y197.283 E21.43922
G1 X95.831 Y197.031 E21.47041
G1 X94.616 Y195.98 E21.59063
G1 X92.462 Y194.174 E21.80099
G1 X91.355 Y193.288 E21.9071
G1 X91.04 Y193.038 E21.93719
G1 X90.592 Y192.673 E21.98044
G1 X90.446 Y192.548 E21.99482
G1 X89.812 Y191.967 E22.05918
G1 X89.371 Y191.525 E22.1059
G1 X88.764 Y190.851 E22.17378
G1 X88.416 Y190.44 E22.21408
G1 X88.358 Y190.37 E22.22088
G1 X87.739 Y189.591 E22.29534
G1 X86.016 Y187.482 E22.49915
G1 X85.265 Y186.622 E22.58459
G1 X85.203 Y186.539 E22.59234
G1 X84.347 Y185.542 E22.69068
G1 X84.044 Y185.128 E22.72907
G1 X83.809 Y184.671 E22.76753
G1 X83.647 Y184.184 E22.80594
G1 X83.552 Y183.627 E22.84822
G1 X83.504 Y183.228 E22.8783
G1 X83.438 Y182.612 E22.92466
G1 X83.365 Y181.843 E22.98247
G1 X83.352 Y181.656 E22.9965
G1 X83.33 Y181.032 E23.04322
G1 X83.325 Y180.402 E23.09037
G1 X83.334 Y179.754 E23.13887
G1 X83.361 Y179.3 E23.1729
G1 X83.468 Y178.344 E23.24489
G1 X83.506 Y178.046 E23.26737
G1 X83.604 Y177.361 E23.31916
G1 X83.716 Y176.86 E23.35758
G1 X83.905 Y176.382 E23.39604
G1 X84.165 Y175.939 E23.43448
G1 X84.363 Y175.684 E23.45864
G1 X85.126 Y174.791 E23.54654
G1 X85.515 Y174.347 E23.59072
G1 X87.236 Y172.272 E23.79246
G1 X88.278 Y170.958 E23.91796
G1 X88.982 Y170.117 E24.00004
G1 X89.33 Y169.737 E24.0386
G1 X90.04 Y169.038 E24.11316
G1 X90.436 Y168.68 E24.15311
G1 X91.762 Y167.596 E24.28128
G1 X93.227 Y166.409 E24.42238
G1 X94.792 Y165.052 E24.5774
G1 X95.839 Y164.155 E24.68057
G1 X96.254 Y163.852 E24.71902
G0 F3600 X98.285 Y166.921
;TYPE:SUPPORT
G1 F1800 X98.512 Y166.899 E24.73609
G1 X100.09 Y166.763 E24.85462
G1 X101.535 Y166.763 E24.96276
G1 X103.255 Y166.946 E25.0922
G1 X103.255 Y167.051 E25.10006
G1 X102.7 Y166.947 E25.14231
G1 X101.48 Y166.83 E25.23403
G1 X101.405 Y166.825 E25.23966
G1 X100.156 Y166.825 E25.33313
G1 X100.082 Y166.83 E25.33868
G1 X98.862 Y166.945 E25.43038
G1 X98.785 Y166.955 E25.43619
G1 X98.285 Y167.051 E25.47429
G1 X98.285 Y166.921 E25.48402
G1 F1500 E18.98402
G1 F600 Z1.3
G0 F3600 X99.156 Y172.063 Z1.3
G1 F600 Z0.3
G1 F1500 E25.48402
G1 F1800 X100.065 Y171.942 E25.55265
G1 X100.991 Y171.915 E25.62197
G1 X101.856 Y171.984 E25.68691
G1 X101.419 Y172.004 E25.71965
G1 X100.795 Y171.986 E25.76637
G1 X98.405 Y172.246 E25.94628
G1 X99.156 Y172.063 E26.00412
G0 F3600 X92.412 Y178.251
G1 F1800 X92.351 Y178.864 E26.05022
G1 X92.193 Y179.244 E26.08102
G1 X92.264 Y178.796 E26.11497
G1 X92.412 Y178.251 E26.15723
G0 F3600 X92.127 Y179.655
G1 F1800 X92.231 Y181.303 E26.2808
G1 X92.404 Y182.944 E26.40429
G1 X92.265 Y182.434 E26.44385
G1 X92.123 Y181.56 E26.51011
G1 X92.075 Y180.621 E26.58047
G1 X92.127 Y179.655 E26.65287
G1 F1500 E20.15287
G1 F600 Z1.3
G0 F3600 X87.035 Y179.274 Z1.3
G1 F600 Z0.3
G1 F1500 E26.65287
G1 F1800 X86.972 Y180.561 E26.7493
G1 X86.972 Y180.636 E26.75491
G1 X87.033 Y181.929 E26.85178
G1 X87.201 Y183.096 E26.94001
G1 X87.111 Y183.096 E26.94675
G1 X86.942 Y181.544 E27.06358
G1 X86.915 Y180.484 E27.14293
G1 X86.925 Y179.903 E27.18641
G1 X86.933 Y179.637 E27.20633
G1 X87.126 Y178.125 E27.3204
G1 X87.2 Y178.125 E27.32594
G1 X87.035 Y179.274 E27.4128
G1 F1500 E20.9128
G1 F600 Z1.3
G0 F3600 X98.535 Y189.004 Z1.3
G1 F600 Z0.3
G1 F1500 E27.4128
G1 F1800 X99.072 Y189.057 E27.45319
G1 X99.336 Y189.182 E27.47504
G1 X99.187 Y189.162 E27.4863
G1 X98.535 Y189.004 E27.5365
G0 F3600 X100.081 Y189.28
G1 F1800 X103.032 Y189.001 E27.75832
G1 X102.838 Y189.059 E27.77348
G1 X101.935 Y189.232 E27.84228
G1 X101.02 Y189.305 E27.91097
G1 X100.081 Y189.28 E27.98127
G1 F1500 E21.48127
G1 F600 Z1.3
G0 F3600 X100.061 Y194.391 Z1.3
G1 F600 Z0.3
G1 F1500 E27.98127
G1 F1800 X100.136 Y194.396 E27.98689
G1 X101.385 Y194.396 E28.08036
G1 X101.459 Y194.391 E28.08591
G1 X102.678 Y194.277 E28.17754
G1 X102.756 Y194.266 E28.18343
G1 X103.256 Y194.17 E28.22153
G1 X103.256 Y194.296 E28.23096
G1 X101.455 Y194.458 E28.36628
G1 X100.011 Y194.458 E28.47435
G1 X98.285 Y194.275 E28.60424
G1 X98.285 Y194.171 E28.61202
G1 X98.841 Y194.274 E28.65434
G1 X100.061 Y194.391 E28.74605
G1 F1500 E22.24605
G1 F600 Z1.3
G0 F3600 X109.292 Y182.298 Z1.3
G1 F600 Z0.3
G1 F1500 E28.74605
G1 F1800 X109.405 Y180.854 E28.85445
G1 X109.405 Y180.519 E28.87952
G1 X109.381 Y179.924 E28.92408
G1 X109.248 Y178.711 E29.0154
G1 X109.359 Y179.223 E29.0546
G1 X109.456 Y180.131 E29.12294
G1 X109.456 Y181.08 E29.19396
G1 X109.361 Y181.976 E29.26139
G1 X109.292 Y182.298 E29.28603
G1 F1500 E22.78603
G1 F600 Z1.3
