;FLAVOR:Marlin
;TIME:3810
;Filament used: 4.75421m
;Layer height: 0.15
;MINX:14.74
;MINY:115.65
;MINZ:0.3
;MAXX:90.34
;MAXY:222.25
;MAXZ:22.05
;Generated with Cura_SteamEngine 4.13.0
M140 S60
M105
M190 S60
M104 S200
M105
M109 S200
M82 ;absolute extrusion mode
G21 ;metric values
G90 ;absolute positioning
M82 ;set extruder to absolute mode
M107 ;start with the fan off
G28 X0 Y0 ;move X/Y to min endstops
M300 S1318 P266
G28 Z0 ;move Z to min endstops
G0 Z0.2
G92 E0 ;zero the extruded length
G1 X40 E25 F400 ; Extrude 25mm of filament in a 4cm line. Reduce speed (F) if you have a nozzle smaller than 0.4mm!
G92 E0 ;zero the extruded length again
G1 E-1 F500 ; Retract a little
G1 X80 F4000 ; Quickly wipe away from the filament line
M117 ; Printing…
G5
G92 E0
G92 E0
G1 F1500 E-6.5
;LAYER_COUNT:146
;LAYER:0
M107
G1 F600 Z1.3
G0 F3600 X17.538 Y115.699 Z1.3
;TYPE:SKIRT
G1 F600 Z0.3
G1 F1500 E0
G1 F1800 X18.278 Y115.651 E0.05549
G1 X47.38 Y115.65 E2.23335
G1 X48.082 Y115.66 E2.28589
G1 X48.593 Y115.708 E2.3243
G1 X49.091 Y115.834 E2.36274
G1 X49.563 Y116.035 E2.40113
G1 X49.998 Y116.308 E2.43957
G1 X50.386 Y116.644 E2.47798
G1 X50.602 Y116.886 E2.50225
G1 X50.951 Y117.319 E2.54387
G1 X52.001 Y118.657 E2.67115
G1 X53.739 Y120.747 E2.87457
G1 X55.563 Y122.817 E3.08104
G1 X57.42 Y124.81 E3.28489
G1 X59.335 Y126.752 E3.489
G1 X61.323 Y128.657 E3.69505
G1 X63.34 Y130.483 E3.89866
G1 X65.425 Y132.266 E4.10396
G1 X67.564 Y133.994 E4.30974
G1 X69.72 Y135.635 E4.51251
G1 X71.932 Y137.221 E4.7162
G1 X74.252 Y138.79 E4.92579
G1 X76.485 Y140.209 E5.12378
G1 X78.879 Y141.636 E5.33235
G1 X81.284 Y142.98 E5.53853
G1 X83.654 Y144.218 E5.73863
G1 X86.171 Y145.442 E5.94808
G1 X88.075 Y146.302 E6.10443
G1 X88.428 Y146.467 E6.13359
G1 X88.875 Y146.72 E6.17202
G1 X89.277 Y147.04 E6.21048
G1 X89.625 Y147.417 E6.24887
G1 X89.91 Y147.844 E6.28729
G1 X90.125 Y148.31 E6.3257
G1 X90.266 Y148.804 E6.36414
G1 X90.33 Y149.365 E6.4064
G1 X90.34 Y149.78 E6.43746
G1 X90.34 Y188.084 E9.30395
G1 X90.33 Y188.813 E9.35851
G1 X90.283 Y189.325 E9.39699
G1 X90.157 Y189.822 E9.43536
G1 X89.956 Y190.295 E9.47382
G1 X89.683 Y190.73 E9.51225
G1 X89.347 Y191.118 E9.55066
G1 X88.955 Y191.449 E9.58906
G1 X88.392 Y191.774 E9.63771
G1 X87.297 Y192.27 E9.72767
G1 X87.015 Y192.392 E9.75066
G1 X84.54 Y193.553 E9.95524
G1 X82.095 Y194.785 E10.16013
G1 X79.704 Y196.076 E10.36348
G1 X77.327 Y197.448 E10.56887
G1 X74.983 Y198.89 E10.77482
G1 X72.715 Y200.374 E10.97765
G1 X70.459 Y201.945 E11.18338
G1 X68.266 Y203.566 E11.38746
G1 X66.114 Y205.253 E11.59209
G1 X64.02 Y206.992 E11.79579
G1 X61.941 Y208.818 E12.00286
G1 X59.935 Y210.686 E12.20799
G1 X58.019 Y212.574 E12.40929
G1 X56.103 Y214.571 E12.6164
G1 X54.278 Y216.584 E12.81973
G1 X52.491 Y218.671 E13.02535
G1 X50.6 Y221.014 E13.25067
G1 X50.247 Y221.387 E13.2891
G1 X49.841 Y221.701 E13.32751
G1 X49.391 Y221.948 E13.36592
G1 X48.908 Y222.122 E13.40434
G1 X48.404 Y222.22 E13.44277
G1 X47.802 Y222.249 E13.48787
G1 X18.704 Y222.25 E15.66543
G1 X18.006 Y222.241 E15.71767
G1 X17.495 Y222.194 E15.75607
G1 X16.997 Y222.069 E15.79449
G1 X16.525 Y221.868 E15.83288
G1 X16.089 Y221.596 E15.87134
G1 X15.701 Y221.26 E15.90975
G1 X15.37 Y220.868 E15.94815
G1 X15.103 Y220.429 E15.9866
G1 X14.908 Y219.954 E16.02502
G1 X14.789 Y219.455 E16.06341
G1 X14.741 Y218.697 E16.12025
G1 X14.74 Y119.579 E23.53778
G1 X14.749 Y118.914 E23.58755
G1 X14.796 Y118.403 E23.62595
G1 X14.922 Y117.905 E23.66439
G1 X15.123 Y117.433 E23.70278
G1 X15.395 Y116.998 E23.74118
G1 X15.732 Y116.61 E23.77964
G1 X16.124 Y116.279 E23.81803
G1 X16.563 Y116.012 E23.85648
G1 X17.038 Y115.818 E23.89488
G1 X17.538 Y115.699 E23.93334
G1 F1500 E17.43334
;MESH:Air Freshener Swivel v2.3mf(1)
G0 F3600 X18.954 Y118.285
G0 X18.954 Y119.864
G0 X47.07 Y182.805
G1 F1500 E23.93334
G0 F3600 X47.14 Y182.875
;TYPE:WALL-INNER
G1 F1800 X47.14 Y218.05 E26.56568
G1 X18.94 Y218.05 E28.67603
G1 X18.94 Y119.85 E36.02486
G1 X47.14 Y119.85 E38.13521
G1 X47.14 Y155.35 E40.79187
G1 X75.94 Y155.35 E42.94712
G1 X75.94 Y150.35 E43.3213
G1 X86.14 Y150.35 E44.08462
G1 X86.14 Y187.875 E46.89282
G1 X75.94 Y187.875 E47.65614
G1 X75.94 Y182.875 E48.03031
G1 X47.14 Y182.875 E50.18557
G0 F3600 X47.74 Y183.475
;TYPE:WALL-OUTER
G1 F1800 X47.74 Y218.65 E52.8179
G1 X18.34 Y218.65 E55.01806
G1 X18.34 Y119.25 E62.45669
G1 X47.74 Y119.25 E64.65685
G1 X47.74 Y154.75 E67.3135
G1 X75.34 Y154.75 E69.37895
G1 X75.34 Y149.75 E69.75313
G1 X86.74 Y149.75 E70.60625
G1 X86.74 Y188.475 E73.50425
G1 X75.34 Y188.475 E74.35737
G1 X75.34 Y183.475 E74.73155
G1 X47.74 Y183.475 E76.797
G0 F3600 X47.74 Y183.775
G0 X47.04 Y183.775
G0 X46.55 Y182.285
;TYPE:SKIN
G1 F1800 X46.55 Y217.46 E79.42933
G1 X19.53 Y217.46 E81.45138
G1 X19.53 Y120.44 E88.71191
G1 X46.55 Y120.44 E90.73396
G1 X46.55 Y155.94 E93.39061
G1 X76.53 Y155.94 E95.63417
G1 X76.53 Y150.94 E96.00835
G1 X85.55 Y150.94 E96.68336
G1 X85.55 Y187.285 E99.40325
G1 X76.53 Y187.285 E100.07827
G1 X76.53 Y182.285 E100.45244
G1 X46.55 Y182.285 E102.696
G0 F3600 X20.33 Y217.189
G1 F1800 X19.799 Y216.658 E102.7522
G0 F3600 X19.799 Y215.809
G1 F1800 X21.179 Y217.189 E102.89825
G0 F3600 X22.027 Y217.189
G1 F1800 X19.799 Y214.961 E103.13405
G0 F3600 X19.799 Y214.112
G1 F1800 X22.876 Y217.189 E103.4597
G0 F3600 X23.724 Y217.189
G1 F1800 X19.799 Y213.264 E103.87509
G0 F3600 X19.799 Y212.415
G1 F1800 X24.573 Y217.189 E104.38034
G0 F3600 X25.421 Y217.189
G1 F1800 X19.799 Y211.567 E104.97533
G0 F3600 X19.799 Y210.718
G1 F1800 X26.27 Y217.189 E105.66018
G0 F3600 X27.118 Y217.189
G1 F1800 X19.799 Y209.869 E106.43482
G0 F3600 X19.799 Y209.021
G1 F1800 X27.967 Y217.189 E107.29927
G0 F3600 X28.816 Y217.189
G1 F1800 X19.799 Y208.172 E108.25357
G0 F3600 X19.799 Y207.324
G1 F1800 X29.664 Y217.189 E109.29761
G0 F3600 X30.513 Y217.189
G1 F1800 X19.799 Y206.475 E110.4315
G0 F3600 X19.799 Y205.627
G1 F1800 X31.361 Y217.189 E111.65515
G0 F3600 X32.21 Y217.189
G1 F1800 X19.799 Y204.778 E112.96864
G0 F3600 X19.799 Y203.93
G1 F1800 X33.058 Y217.189 E114.37188
G0 F3600 X33.907 Y217.189
G1 F1800 X19.799 Y203.081 E115.86498
G0 F3600 X19.799 Y202.233
G1 F1800 X34.755 Y217.189 E117.44782
G0 F3600 X35.604 Y217.189
G1 F1800 X19.799 Y201.384 E119.12051
G0 F3600 X19.799 Y200.536
G1 F1800 X36.452 Y217.189 E120.88295
G0 F3600 X37.301 Y217.189
G1 F1800 X19.799 Y199.687 E122.73524
G0 F3600 X19.799 Y198.839
G1 F1800 X38.149 Y217.189 E124.67728
G0 F3600 X38.998 Y217.189
G1 F1800 X19.799 Y197.99 E126.70916
G0 F3600 X19.799 Y197.142
G1 F1800 X39.846 Y217.189 E128.8308
G0 F3600 X40.695 Y217.189
G1 F1800 X19.799 Y196.293 E131.04229
G0 F3600 X19.799 Y195.445
G1 F1800 X41.543 Y217.189 E133.34352
G0 F3600 X42.392 Y217.189
G1 F1800 X19.799 Y194.596 E135.73461
G0 F3600 X19.799 Y193.747
G1 F1800 X43.24 Y217.189 E138.2155
G0 F3600 X44.089 Y217.189
G1 F1800 X19.799 Y192.899 E140.78618
G0 F3600 X19.799 Y192.05
G1 F1800 X44.938 Y217.189 E143.44672
G0 F3600 X45.786 Y217.189
G1 F1800 X19.799 Y191.202 E146.19701
G0 F3600 X19.799 Y190.353
G1 F1800 X46.28 Y216.834 E148.99957
G0 F3600 X46.28 Y215.985
G1 F1800 X19.799 Y189.505 E151.80209
G0 F3600 X19.799 Y188.656
G1 F1800 X46.28 Y215.137 E154.60465
G0 F3600 X46.28 Y214.288
G1 F1800 X19.799 Y187.808 E157.40717
G0 F3600 X19.799 Y186.959
G1 F1800 X46.28 Y213.44 E160.20973
G0 F3600 X46.28 Y212.591
G1 F1800 X19.799 Y186.111 E163.01225
G0 F3600 X19.799 Y185.262
G1 F1800 X46.28 Y211.743 E165.81481
G0 F3600 X46.28 Y210.894
G1 F1800 X19.799 Y184.414 E168.61733
G0 F3600 X19.799 Y183.565
G1 F1800 X46.28 Y210.046 E171.41989
G0 F3600 X46.28 Y209.197
G1 F1800 X19.799 Y182.717 E174.22241
G0 F3600 X19.799 Y181.868
G1 F1800 X46.28 Y208.349 E177.02497
G0 F3600 X46.28 Y207.5
G1 F1800 X19.799 Y181.02 E179.82749
G0 F3600 X19.799 Y180.171
G1 F1800 X46.28 Y206.651 E182.63
G0 F3600 X46.28 Y205.803
G1 F1800 X19.799 Y179.322 E185.43257
G0 F3600 X19.799 Y178.474
G1 F1800 X46.28 Y204.954 E188.23508
G0 F3600 X46.28 Y204.106
G1 F1800 X19.799 Y177.625 E191.03765
G0 F3600 X19.799 Y176.777
G1 F1800 X46.28 Y203.257 E193.84016
G0 F3600 X46.28 Y202.409
G1 F1800 X19.799 Y175.928 E196.64273
G0 F3600 X19.799 Y175.08
G1 F1800 X46.28 Y201.56 E199.44524
G0 F3600 X46.28 Y200.712
G1 F1800 X19.799 Y174.231 E202.24781
G0 F3600 X19.799 Y173.383
G1 F1800 X46.28 Y199.863 E205.05032
G0 F3600 X46.28 Y199.015
G1 F1800 X19.799 Y172.534 E207.85289
G0 F3600 X19.799 Y171.686
G1 F1800 X46.28 Y198.166 E210.6554
G0 F3600 X46.28 Y197.318
G1 F1800 X19.799 Y170.837 E213.45797
G0 F3600 X19.799 Y169.989
G1 F1800 X46.28 Y196.469 E216.26048
G0 F3600 X46.28 Y195.621
G1 F1800 X19.799 Y169.14 E219.06305
G0 F3600 X19.799 Y168.292
G1 F1800 X46.28 Y194.772 E221.86556
G0 F3600 X46.28 Y193.924
G1 F1800 X19.799 Y167.443 E224.66813
G0 F3600 X19.799 Y166.595
G1 F1800 X46.28 Y193.075 E227.47064
G0 F3600 X46.28 Y192.226
G1 F1800 X19.799 Y165.746 E230.27315
G0 F3600 X19.799 Y164.898
G1 F1800 X46.28 Y191.378 E233.07567
G0 F3600 X46.28 Y190.529
G1 F1800 X19.799 Y164.049 E235.87818
G0 F3600 X19.799 Y163.2
G1 F1800 X46.28 Y189.681 E238.68075
G0 F3600 X46.28 Y188.832
G1 F1800 X19.799 Y162.352 E241.48326
G0 F3600 X19.799 Y161.503
G1 F1800 X46.28 Y187.984 E244.28582
G0 F3600 X46.28 Y187.135
G1 F1800 X19.799 Y160.655 E247.08834
G0 F3600 X19.799 Y159.806
G1 F1800 X46.28 Y186.287 E249.8909
G0 F3600 X46.28 Y185.438
G1 F1800 X19.799 Y158.958 E252.69342
G0 F3600 X19.799 Y158.109
G1 F1800 X46.28 Y184.59 E255.49598
G0 F3600 X46.28 Y183.741
G1 F1800 X19.799 Y157.261 E258.2985
G0 F3600 X19.799 Y156.412
G1 F1800 X46.28 Y182.893 E261.10106
G0 F3600 X46.28 Y182.044
G1 F1800 X19.799 Y155.564 E263.90358
G0 F3600 X19.799 Y154.715
G1 F1800 X47.098 Y182.014 E266.79272
G0 F3600 X47.946 Y182.014
G1 F1800 X19.799 Y153.867 E269.7716
G0 F3600 X19.799 Y153.018
G1 F1800 X48.795 Y182.014 E272.84034
G0 F3600 X49.643 Y182.014
G1 F1800 X19.799 Y152.17 E275.99882
G0 F3600 X19.799 Y151.321
G1 F1800 X50.492 Y182.014 E279.24716
G0 F3600 X51.34 Y182.014
G1 F1800 X19.799 Y150.473 E282.58524
G0 F3600 X19.799 Y149.624
G1 F1800 X52.189 Y182.014 E286.01317
G0 F3600 X53.037 Y182.014
G1 F1800 X19.799 Y148.775 E289.5309
G0 F3600 X19.799 Y147.927
G1 F1800 X53.886 Y182.014 E293.13844
G0 F3600 X54.735 Y182.014
G1 F1800 X19.799 Y147.078 E296.83582
G0 F3600 X19.799 Y146.23
G1 F1800 X55.583 Y182.014 E300.62295
G0 F3600 X56.432 Y182.014
G1 F1800 X19.799 Y145.381 E304.49994
G0 F3600 X19.799 Y144.533
G1 F1800 X57.28 Y182.014 E308.46667
G0 F3600 X58.129 Y182.014
G1 F1800 X19.799 Y143.684 E312.52325
G0 F3600 X19.799 Y142.836
G1 F1800 X58.977 Y182.014 E316.66958
G0 F3600 X59.826 Y182.014
G1 F1800 X19.799 Y141.987 E320.90576
G0 F3600 X19.799 Y141.139
G1 F1800 X60.674 Y182.014 E325.23169
G0 F3600 X61.523 Y182.014
G1 F1800 X19.799 Y140.29 E329.64747
G0 F3600 X19.799 Y139.442
G1 F1800 X62.371 Y182.014 E334.153
G0 F3600 X63.22 Y182.014
G1 F1800 X19.799 Y138.593 E338.74838
G0 F3600 X19.799 Y137.745
G1 F1800 X64.068 Y182.014 E343.4335
G0 F3600 X64.917 Y182.014
G1 F1800 X19.799 Y136.896 E348.20848
G0 F3600 X19.799 Y136.048
G1 F1800 X65.765 Y182.014 E353.0732
G0 F3600 X66.614 Y182.014
G1 F1800 X19.799 Y135.199 E358.02778
G0 F3600 X19.799 Y134.35
G1 F1800 X67.462 Y182.014 E363.07216
G0 F3600 X68.311 Y182.014
G1 F1800 X19.799 Y133.502 E368.20633
G0 F3600 X19.799 Y132.653
G1 F1800 X69.159 Y182.014 E373.43031
G0 F3600 X70.008 Y182.014
G1 F1800 X19.799 Y131.805 E378.74408
G0 F3600 X19.799 Y130.956
G1 F1800 X70.857 Y182.014 E384.14771
G0 F3600 X71.705 Y182.014
G1 F1800 X19.799 Y130.108 E389.64108
G0 F3600 X19.799 Y129.259
G1 F1800 X46.28 Y155.74 E392.44365
G0 F3600 X46.749 Y156.209
G1 F1800 X72.554 Y182.014 E395.17467
G0 F3600 X73.402 Y182.014
G1 F1800 X47.598 Y156.209 E397.90564
G0 F3600 X48.446 Y156.209
G1 F1800 X74.251 Y182.014 E400.63666
G0 F3600 X75.099 Y182.014
G1 F1800 X49.295 Y156.209 E403.36763
G0 F3600 X50.143 Y156.209
G1 F1800 X75.948 Y182.014 E406.09866
G1 X76.054 Y182.12
G0 F3600 X76.799 Y182.865
G1 F1800 X80.948 Y187.014 E406.53776
G0 F3600 X81.796 Y187.014
G1 F1800 X76.799 Y182.017 E407.06661
G1 X76.796 Y182.014
G1 X50.992 Y156.209 E409.79758
G0 F3600 X51.84 Y156.209
G1 F1800 X82.645 Y187.014 E413.05777
G0 F3600 X83.493 Y187.014
G1 F1800 X52.689 Y156.209 E416.3179
G0 F3600 X53.537 Y156.209
G1 F1800 X84.342 Y187.014 E419.57809
G0 F3600 X85.19 Y187.014
G1 F1800 X54.386 Y156.209 E422.83823
G0 F3600 X55.234 Y156.209
G1 F1800 X85.279 Y186.254 E426.01798
G0 F3600 X85.279 Y185.406
G1 F1800 X56.083 Y156.209 E429.10794
G0 F3600 X56.931 Y156.209
G1 F1800 X85.279 Y184.557 E432.1081
G0 F3600 X85.279 Y183.709
G1 F1800 X57.78 Y156.209 E435.01845
G0 F3600 X58.629 Y156.209
G1 F1800 X85.279 Y182.86 E437.83896
G0 F3600 X85.279 Y182.012
G1 F1800 X59.477 Y156.209 E440.56972
G0 F3600 X60.326 Y156.209
G1 F1800 X85.279 Y181.163 E443.21062
G0 F3600 X85.279 Y180.315
G1 F1800 X61.174 Y156.209 E445.76178
G0 F3600 X62.023 Y156.209
G1 F1800 X85.279 Y179.466 E448.22309
G0 F3600 X85.279 Y178.618
G1 F1800 X62.871 Y156.209 E450.59465
G0 F3600 X63.72 Y156.209
G1 F1800 X85.279 Y177.769 E452.87636
G0 F3600 X85.279 Y176.92
G1 F1800 X64.568 Y156.209 E455.06827
G0 F3600 X65.417 Y156.209
G1 F1800 X85.279 Y176.072 E457.17038
G0 F3600 X85.279 Y175.223
G1 F1800 X66.265 Y156.209 E459.18269
G0 F3600 X67.114 Y156.209
G1 F1800 X85.279 Y174.375 E461.1052
G0 F3600 X85.279 Y173.526
G1 F1800 X67.962 Y156.209 E462.93791
G0 F3600 X68.811 Y156.209
G1 F1800 X85.279 Y172.678 E464.68083
G0 F3600 X85.279 Y171.829
G1 F1800 X69.659 Y156.209 E466.33394
G0 F3600 X70.508 Y156.209
G1 F1800 X85.279 Y170.981 E467.89725
G0 F3600 X85.279 Y170.132
G1 F1800 X71.356 Y156.209 E469.37077
G0 F3600 X72.205 Y156.209
G1 F1800 X85.279 Y169.284 E470.75448
G0 F3600 X85.279 Y168.435
G1 F1800 X73.054 Y156.209 E472.04834
G0 F3600 X73.902 Y156.209
G1 F1800 X85.279 Y167.587 E473.25246
G0 F3600 X85.279 Y166.738
G1 F1800 X74.751 Y156.209 E474.36672
G0 F3600 X75.599 Y156.209
G1 F1800 X85.279 Y165.89 E475.39124
G0 F3600 X85.279 Y165.041
G1 F1800 X76.448 Y156.209 E476.32591
G0 F3600 X76.799 Y155.712
G1 F1800 X85.279 Y164.193 E477.22342
G0 F3600 X85.279 Y163.344
G1 F1800 X76.799 Y154.864 E478.12089
G0 F3600 X76.799 Y154.015
G1 F1800 X85.279 Y162.495 E479.01835
G0 F3600 X85.279 Y161.647
G1 F1800 X76.799 Y153.167 E479.91582
G0 F3600 X76.799 Y152.318
G1 F1800 X85.279 Y160.798 E480.81328
G0 F3600 X85.279 Y159.95
G1 F1800 X76.799 Y151.47 E481.71075
G0 F3600 X77.387 Y151.209
G1 F1800 X85.279 Y159.101 E482.54598
G0 F3600 X85.279 Y158.253
G1 F1800 X78.235 Y151.209 E483.29147
G0 F3600 X79.084 Y151.209
G1 F1800 X85.279 Y157.404 E483.94711
G0 F3600 X85.279 Y156.556
G1 F1800 X79.932 Y151.209 E484.513
G0 F3600 X80.781 Y151.209
G1 F1800 X85.279 Y155.707 E484.98903
G0 F3600 X85.279 Y154.859
G1 F1800 X81.629 Y151.209 E485.37532
G0 F3600 X82.478 Y151.209
G1 F1800 X85.279 Y154.01 E485.67176
G0 F3600 X85.279 Y153.162
G1 F1800 X83.326 Y151.209 E485.87845
G0 F3600 X84.175 Y151.209
G1 F1800 X85.279 Y152.313 E485.99529
G0 F3600 X85.279 Y151.465
G1 F1800 X85.023 Y151.209 E486.02239
G0 F3600 X76.799 Y183.714
G1 F1800 X80.099 Y187.014 E486.37164
G0 F3600 X79.251 Y187.014
G1 F1800 X76.799 Y184.562 E486.63114
G0 F3600 X76.799 Y185.411
G1 F1800 X78.402 Y187.014 E486.80079
G0 F3600 X77.554 Y187.014
G1 F1800 X76.799 Y186.259 E486.88069
G0 F3600 X75.968 Y182.847
G0 X46.28 Y154.891
G1 F1800 X19.799 Y128.411 E489.68321
G0 F3600 X19.799 Y127.562
G1 F1800 X46.28 Y154.043 E492.48577
G0 F3600 X46.28 Y153.194
G1 F1800 X19.799 Y126.714 E495.28829
G0 F3600 X19.799 Y125.865
G1 F1800 X46.28 Y152.346 E498.09085
G0 F3600 X46.28 Y151.497
G1 F1800 X19.799 Y125.017 E500.89337
G0 F3600 X19.799 Y124.168
G1 F1800 X46.28 Y150.649 E503.69593
