;FLAVOR:Marlin
;TIME:1884
;Filament used: 2.29201m
;Layer height: 0.15
;MINX:84.703
;MINY:143.473
;MINZ:0.3
;MAXX:142.503
;MAXY:166.585
;MAXZ:36
;Generated with Cura_SteamEngine 4.13.0
M140 S60
M105
M190 S60
M104 S200
M105
M109 S200
M82 ;absolute extrusion mode
G21 ;metric values
G90 ;absolute positioning
M82 ;set extruder to absolute mode
M107 ;start with the fan off
G28 X0 Y0 ;move X/Y to min endstops
M300 S1318 P266
G28 Z0 ;move Z to min endstops
G0 Z0.2
G92 E0 ;zero the extruded length
G1 X40 E25 F400 ; Extrude 25mm of filament in a 4cm line. Reduce speed (F) if you have a nozzle smaller than 0.4mm!
G92 E0 ;zero the extruded length again
G1 E-1 F500 ; Retract a little
G1 X80 F4000 ; Quickly wipe away from the filament line
M117 ; Printing…
G5
G92 E0
G92 E0
G1 F1500 E-6.5
;LAYER_COUNT:239
;LAYER:0
M107
G1 F600 Z1.3
G0 F3600 X86.807 Y147.177 Z1.3
;TYPE:SKIRT
G1 F600 Z0.3
G1 F1500 E0
G1 F1800 X87.308 Y146.929 E0.04183
G1 X87.838 Y146.755 E0.08358
G1 X88.644 Y146.642 E0.14449
G1 X89.997 Y146.593 E0.24581
G1 X90.728 Y146.575 E0.30053
G1 X93.467 Y146.429 E0.50579
G1 X96.179 Y146.207 E0.70942
G1 X98.847 Y145.913 E0.91029
G1 X101.553 Y145.537 E1.11474
G1 X104.231 Y145.087 E1.31796
G1 X106.875 Y144.567 E1.51962
G1 X110.319 Y143.771 E1.78414
G1 X111.048 Y143.599 E1.8402
G1 X111.573 Y143.521 E1.87992
G1 X112.008 Y143.489 E1.91256
G1 X112.935 Y143.473 E1.98194
G1 X114.449 Y143.473 E2.09524
G1 X115.117 Y143.482 E2.14524
G1 X115.89 Y143.557 E2.20335
G1 X116.292 Y143.631 E2.23394
G1 X119.178 Y144.32 E2.45599
G1 X121.897 Y144.891 E2.6639
G1 X124.545 Y145.366 E2.86523
G1 X127.22 Y145.769 E3.06767
G1 X129.913 Y146.098 E3.2707
G1 X132.62 Y146.352 E3.47417
G1 X135.339 Y146.529 E3.67808
G1 X137.876 Y146.612 E3.86804
G1 X138.592 Y146.643 E3.92167
G1 X139.146 Y146.707 E3.96341
G1 X139.686 Y146.849 E4.00519
G1 X140.2 Y147.067 E4.04697
G1 X140.677 Y147.356 E4.08871
G1 X141.173 Y147.773 E4.1372
G1 X141.342 Y147.941 E4.15504
G1 X141.708 Y148.362 E4.19678
G1 X142.011 Y148.831 E4.23857
G1 X142.244 Y149.338 E4.28033
G1 X142.402 Y149.874 E4.32214
G1 X142.488 Y150.531 E4.37173
G1 X142.503 Y151.183 E4.42054
G1 X142.503 Y158.675 E4.9812
G1 X142.493 Y159.402 E5.03561
G1 X142.445 Y159.958 E5.07737
G1 X142.319 Y160.502 E5.11916
G1 X142.116 Y161.022 E5.16094
G1 X141.841 Y161.507 E5.20266
G1 X141.367 Y162.089 E5.25883
G1 X141.199 Y162.259 E5.27672
G1 X140.779 Y162.627 E5.31851
G1 X140.311 Y162.932 E5.36031
G1 X139.805 Y163.166 E5.40203
G1 X139.27 Y163.325 E5.4438
G1 X138.568 Y163.415 E5.49676
G1 X137.217 Y163.465 E5.59794
G1 X136.442 Y163.484 E5.65595
G1 X133.762 Y163.627 E5.85679
G1 X131.033 Y163.85 E6.0617
G1 X128.352 Y164.147 E6.26356
G1 X125.649 Y164.522 E6.46778
G1 X122.972 Y164.972 E6.67092
G1 X120.328 Y165.492 E6.87258
G1 X116.93 Y166.278 E7.13358
G1 X116.378 Y166.414 E7.17613
G1 X115.683 Y166.533 E7.22889
G1 X115.2 Y166.57 E7.26515
G1 X114.273 Y166.585 E7.33453
G1 X112.757 Y166.585 E7.44798
G1 X112.09 Y166.576 E7.4979
G1 X111.278 Y166.496 E7.55896
G1 X110.732 Y166.386 E7.60064
G1 X108.033 Y165.739 E7.80834
G1 X105.324 Y165.17 E8.01549
G1 X102.713 Y164.7 E8.21403
G1 X100.016 Y164.293 E8.41815
G1 X97.32 Y163.962 E8.62142
G1 X94.621 Y163.709 E8.82428
G1 X91.897 Y163.531 E9.02857
G1 X89.358 Y163.447 E9.21868
G1 X88.617 Y163.415 E9.27418
G1 X88.062 Y163.351 E9.31599
G1 X87.522 Y163.209 E9.35778
G1 X87.009 Y162.991 E9.39949
G1 X86.531 Y162.702 E9.44129
G1 X86.044 Y162.293 E9.48888
G1 X85.873 Y162.124 E9.50688
G1 X85.505 Y161.704 E9.54866
G1 X85.2 Y161.236 E9.59047
G1 X84.966 Y160.729 E9.63226
G1 X84.807 Y160.194 E9.67402
G1 X84.718 Y159.517 E9.72512
G1 X84.703 Y158.787 E9.77976
G1 X84.704 Y151.316 E10.33886
G1 X84.715 Y150.644 E10.38916
G1 X84.764 Y150.088 E10.43093
G1 X84.892 Y149.545 E10.47267
G1 X85.096 Y149.025 E10.51448
G1 X85.372 Y148.54 E10.55624
G1 X85.856 Y147.95 E10.61335
G1 X86.343 Y147.498 E10.66307
G1 X86.807 Y147.177 E10.70529
G0 F3600 X87.147 Y147.674
G1 F1800 X87.611 Y147.454 E10.74372
G1 X88.104 Y147.31 E10.78216
G1 X88.666 Y147.241 E10.82453
G1 X90.012 Y147.193 E10.92532
G1 X90.775 Y147.174 E10.98244
G1 X93.478 Y147.03 E11.18501
G1 X96.224 Y146.805 E11.39119
G1 X98.921 Y146.508 E11.59424
G1 X101.67 Y146.126 E11.80194
G1 X104.33 Y145.679 E12.00379
G1 X107.008 Y145.153 E12.20803
G1 X110.409 Y144.366 E12.46927
G1 X110.934 Y144.236 E12.50975
G1 X111.427 Y144.145 E12.54727
G1 X112.018 Y144.089 E12.59169
G1 X112.935 Y144.073 E12.66033
G1 X114.44 Y144.073 E12.77295
G1 X115.108 Y144.082 E12.82295
G1 X115.813 Y144.152 E12.87597
G1 X116.152 Y144.214 E12.90176
G1 X119.088 Y144.915 E13.12765
G1 X121.767 Y145.478 E13.33251
G1 X124.43 Y145.955 E13.53497
G1 X127.128 Y146.362 E13.73916
G1 X129.855 Y146.695 E13.94475
G1 X132.595 Y146.952 E14.1507
G1 X135.311 Y147.129 E14.35438
G1 X137.85 Y147.211 E14.54449
G1 X138.566 Y147.242 E14.59812
G1 X139.075 Y147.304 E14.63649
G1 X139.569 Y147.444 E14.67492
G1 X140.035 Y147.66 E14.71336
G1 X140.462 Y147.945 E14.75177
G1 X140.919 Y148.367 E14.79833
G1 X141.253 Y148.756 E14.83669
G1 X141.524 Y149.192 E14.87511
G1 X141.723 Y149.665 E14.91351
G1 X141.847 Y150.164 E14.95199
G1 X141.895 Y150.691 E14.99159
G1 X141.903 Y151.191 E15.02902
G1 X141.903 Y158.666 E15.58841
G1 X141.893 Y159.393 E15.64282
G1 X141.846 Y159.905 E15.6813
G1 X141.72 Y160.402 E15.71967
G1 X141.519 Y160.875 E15.75813
G1 X141.246 Y161.31 E15.79656
G1 X140.772 Y161.838 E15.84966
G1 X140.384 Y162.174 E15.88807
G1 X139.948 Y162.445 E15.92649
G1 X139.476 Y162.646 E15.96488
G1 X138.978 Y162.771 E16.0033
G1 X138.546 Y162.816 E16.03581
G1 X137.203 Y162.865 E16.13638
G1 X136.43 Y162.884 E16.19424
G1 X133.717 Y163.029 E16.39756
G1 X130.988 Y163.252 E16.60247
G1 X128.278 Y163.552 E16.80651
G1 X125.532 Y163.933 E17.01398
G1 X122.874 Y164.38 E17.21568
G1 X120.195 Y164.906 E17.41999
G1 X116.758 Y165.701 E17.68399
G1 X116.233 Y165.831 E17.72447
G1 X115.599 Y165.938 E17.77258
G1 X115.19 Y165.971 E17.80329
G1 X114.326 Y165.985 E17.86796
G1 X112.765 Y165.985 E17.98478
G1 X112.098 Y165.976 E18.0347
G1 X111.356 Y165.901 E18.09051
G1 X110.846 Y165.796 E18.12947
G1 X108.159 Y165.152 E18.33625
G1 X105.482 Y164.589 E18.54097
G1 X102.798 Y164.107 E18.74504
G1 X100.074 Y163.695 E18.95121
G1 X97.413 Y163.369 E19.15183
G1 X94.645 Y163.109 E19.35989
G1 X91.926 Y162.931 E19.5638
G1 X89.384 Y162.848 E19.75413
G1 X88.643 Y162.816 E19.80964
G1 X88.133 Y162.754 E19.84809
G1 X87.639 Y162.614 E19.88651
G1 X87.173 Y162.398 E19.92495
G1 X86.746 Y162.114 E19.96333
G1 X86.294 Y161.697 E20.00935
G1 X85.958 Y161.309 E20.04776
G1 X85.687 Y160.873 E20.08617
G1 X85.486 Y160.401 E20.12457
G1 X85.361 Y159.903 E20.16299
G1 X85.31 Y159.329 E20.20612
G1 X85.303 Y158.781 E20.24713
G1 X85.303 Y151.326 E20.80503
G1 X85.314 Y150.654 E20.85532
G1 X85.363 Y150.143 E20.89374
G1 X85.49 Y149.645 E20.9322
G1 X85.692 Y149.174 E20.97055
G1 X85.966 Y148.739 E21.00902
G1 X86.446 Y148.21 E21.06248
G1 X86.723 Y147.962 E21.0903
G1 X87.147 Y147.674 E21.12866
G0 F3600 X88.903 Y150.829
;TYPE:SUPPORT
G1 F1800 X109.613 Y150.829 E22.6785
G1 X109.391 Y151.043 E22.70158
G1 X108.925 Y151.602 E22.75604
G1 X108.853 Y151.702 E22.76526
G1 X108.445 Y152.382 E22.8246
G1 X108.386 Y152.494 E22.83408
G1 X108.085 Y153.238 E22.89414
G1 X108.053 Y153.356 E22.90329
G1 X107.88 Y154.09 E22.95972
G1 X107.863 Y154.211 E22.96887
G1 X107.804 Y154.966 E23.02554
G1 X107.804 Y155.092 E23.03497
G1 X107.862 Y155.832 E23.09052
G1 X107.877 Y155.954 E23.09972
G1 X108.055 Y156.717 E23.15835
G1 X108.092 Y156.834 E23.16753
G1 X108.38 Y157.547 E23.22508
G1 X108.433 Y157.659 E23.23435
G1 X108.847 Y158.351 E23.2947
G1 X108.922 Y158.448 E23.30387
G1 X109.378 Y158.999 E23.3574
G1 X109.612 Y159.229 E23.38195
G1 X88.903 Y159.229 E24.93171
G1 X88.903 Y150.829 E25.56033
G0 F3600 X89.142 Y151.2
G1 F1800 X108.947 Y151.2 E27.04244
G0 F3600 X108 Y151.069
G1 F1800 X108 Y152.811 E27.17281
G0 F3600 X107.747 Y153.6
G1 F1800 X89.142 Y153.6 E28.56512
G0 F3600 X89.142 Y156
G1 F1800 X107.64 Y156 E29.94942
G0 F3600 X108 Y157.247
G1 F1800 X108 Y158.989 E30.07978
G0 F3600 X108.596 Y158.4
G1 F1800 X89.142 Y158.4 E31.53563
G0 F3600 X91.2 Y158.989
G1 F1800 X91.2 Y151.069 E32.12833
G0 F3600 X93.6 Y151.069
G1 F1800 X93.6 Y158.989 E32.72102
G0 F3600 X96 Y158.989
G1 F1800 X96 Y151.069 E33.31372
G0 F3600 X98.4 Y151.069
G1 F1800 X98.4 Y158.989 E33.90641
G0 F3600 X100.8 Y158.989
G1 F1800 X100.8 Y151.069 E34.49911
G0 F3600 X103.2 Y151.069
G1 F1800 X103.2 Y158.989 E35.0918
G0 F3600 X105.6 Y158.989
G1 F1800 X105.6 Y151.069 E35.6845
G1 F1500 E29.1845
G0 F3600 X111.31 Y146.888
G0 X115.189 Y146.715
G0 X116.318 Y147.311
G0 X117.594 Y150.829
G1 F1500 E35.6845
G1 F1800 X138.303 Y150.829 E37.23426
G1 X138.303 Y159.229 E37.86288
G1 X117.593 Y159.229 E39.41272
G1 X117.826 Y159.002 E39.43706
G1 X118.302 Y158.43 E39.49275
G1 X118.372 Y158.328 E39.50201
G1 X118.76 Y157.682 E39.5584
G1 X118.819 Y157.57 E39.56788
G1 X119.122 Y156.821 E39.62834
G1 X119.154 Y156.703 E39.63749
G1 X119.329 Y155.963 E39.6944
G1 X119.345 Y155.84 E39.70368
G1 X119.402 Y155.089 E39.76004
G1 X119.402 Y154.969 E39.76902
G1 X119.346 Y154.227 E39.82471
G1 X119.33 Y154.105 E39.83392
G1 X119.152 Y153.341 E39.89262
G1 X119.115 Y153.223 E39.90188
G1 X118.829 Y152.517 E39.95888
G1 X118.776 Y152.405 E39.96815
G1 X118.368 Y151.722 E40.02769
G1 X118.296 Y151.623 E40.03685
G1 X117.843 Y151.075 E40.09006
G1 X117.594 Y150.829 E40.11625
G0 F3600 X118.257 Y151.2
G1 F1800 X138.063 Y151.2 E41.59844
G0 F3600 X136.8 Y151.069
G1 F1800 X136.8 Y158.989 E42.19114
G0 F3600 X138.063 Y158.4
G1 F1800 X118.608 Y158.4 E43.64706
G0 F3600 X120 Y158.989
G1 F1800 X120 Y151.069 E44.23975
G0 F3600 X122.4 Y151.069
G1 F1800 X122.4 Y158.989 E44.83245
G0 F3600 X124.8 Y158.989
G1 F1800 X124.8 Y151.069 E45.42514
G0 F3600 X127.2 Y151.069
G1 F1800 X127.2 Y158.989 E46.01784
G0 F3600 X129.6 Y158.989
G1 F1800 X129.6 Y151.069 E46.61053
G0 F3600 X132 Y151.069
G1 F1800 X132 Y158.989 E47.20323
G0 F3600 X134.4 Y158.989
G1 F1800 X134.4 Y151.069 E47.79593
G0 F3600 X138.063 Y153.6
G1 F1800 X119.458 Y153.6 E49.18824
G0 F3600 X119.567 Y156
G1 F1800 X138.063 Y156 E50.57239
G1 F1500 E44.07239
;MESH:Air Freshener Swivel v2.3mf
G0 F3600 X117.879 Y157.915
G0 X116.521 Y157.101
G0 X114.871 Y158.315
G1 F1500 E50.57239
G0 F3600 X114.956 Y158.367
;TYPE:WALL-INNER
G1 F1800 X114.96 Y159.064 E50.62455
G1 X114.937 Y161.785 E50.82819
G1 X112.27 Y161.785 E51.02777
G1 X112.244 Y158.413 E51.28012
G1 X111.463 Y157.921 E51.3492
G1 X111.054 Y157.567 E51.38968
G1 X111.023 Y157.537 E51.39291
G1 X110.666 Y157.106 E51.43479
G1 X110.385 Y156.636 E51.47577
G1 X110.173 Y156.109 E51.51828
G1 X110.047 Y155.572 E51.55956
G1 X110.006 Y155.029 E51.60031
G1 X110.048 Y154.478 E51.64166
G1 X110.175 Y153.941 E51.68296
G1 X110.381 Y153.428 E51.72433
G1 X110.68 Y152.933 E51.76761
G1 X111.025 Y152.519 E51.80793
G1 X111.399 Y152.186 E51.84541
G1 X111.794 Y151.92 E51.88105
G1 X112.251 Y151.692 E51.91927
G1 X112.247 Y150.995 E51.97143
G1 X112.27 Y148.273 E52.17514
G1 X114.937 Y148.273 E52.37472
G1 X114.963 Y151.646 E52.62715
G1 X115.77 Y152.154 E52.69851
G1 X116.186 Y152.523 E52.74012
G1 X116.538 Y152.949 E52.78148
G1 X116.824 Y153.428 E52.82323
G1 X117.035 Y153.951 E52.86543
G1 X117.159 Y154.486 E52.90653
G1 X117.201 Y155.028 E52.94721
G1 X117.159 Y155.58 E52.98864
G1 X117.032 Y156.118 E53.03001
G1 X116.823 Y156.636 E53.07181
G1 X116.537 Y157.112 E53.11337
G1 X116.183 Y157.538 E53.15482
G1 X115.817 Y157.865 E53.19155
G1 X115.417 Y158.136 E53.22771
G1 X114.956 Y158.367 E53.26629
G0 F3600 X115.558 Y158.737
;TYPE:WALL-OUTER
G1 F1800 X115.56 Y159.069 E53.29114
G1 X115.534 Y162.169 E53.52314
G1 X115.501 Y162.251 E53.52975
G1 X115.392 Y162.339 E53.54023
G1 X115.079 Y162.385 E53.56391
G1 X112.127 Y162.385 E53.78482
G1 X111.815 Y162.339 E53.80842
G1 X111.696 Y162.232 E53.8204
G1 X111.673 Y162.173 E53.82514
G1 X111.647 Y158.746 E54.08161
G1 X111.1 Y158.401 E54.13
G1 X110.661 Y158.021 E54.17346
G1 X110.582 Y157.946 E54.18161
G1 X110.174 Y157.453 E54.2295
G1 X109.845 Y156.902 E54.27752
G1 X109.6 Y156.293 E54.32665
G1 X109.453 Y155.664 E54.37499
G1 X109.404 Y155.029 E54.42265
G1 X109.454 Y154.386 E54.47091
G1 X109.602 Y153.756 E54.51934
G1 X109.841 Y153.163 E54.56719
G1 X110.19 Y152.583 E54.61784
G1 X110.591 Y152.103 E54.66465
G1 X110.656 Y152.043 E54.67127
G1 X111.032 Y151.71 E54.70886
G1 X111.491 Y151.401 E54.75027
G1 X111.649 Y151.322 E54.76349
G1 X111.647 Y150.99 E54.78833
G1 X111.673 Y147.889 E55.0204
G1 X111.706 Y147.807 E55.02702
G1 X111.815 Y147.719 E55.0375
G1 X112.127 Y147.673 E55.0611
G1 X115.079 Y147.673 E55.28202
G1 X115.392 Y147.719 E55.30569
G1 X115.508 Y147.818 E55.3171
G1 X115.534 Y147.885 E55.32248
G1 X115.56 Y151.313 E55.57903
G1 X116.108 Y151.658 E55.62749
G1 X116.168 Y151.704 E55.63314
G1 X116.55 Y152.042 E55.67131
G1 X116.626 Y152.113 E55.6791
G1 X117.029 Y152.601 E55.72646
G1 X117.364 Y153.162 E55.77536
G1 X117.607 Y153.765 E55.82401
G1 X117.754 Y154.395 E55.87242
G1 X117.802 Y155.029 E55.92
G1 X117.753 Y155.672 E55.96826
G1 X117.605 Y156.303 E56.01677
G1 X117.364 Y156.901 E56.06501
G1 X117.027 Y157.462 E56.11399
G1 X116.616 Y157.956 E56.16208
G1 X116.185 Y158.34 E56.20528
G1 X115.722 Y158.655 E56.24719
G1 X115.558 Y158.737 E56.26091
G0 F3600 X115.559 Y159.037
G0 X114.86 Y159.064
G0 X114.37 Y159.059
;TYPE:SKIN
G1 F1800 X114.352 Y161.195 E56.42076
G1 X112.856 Y161.195 E56.53272
G1 X112.832 Y158.086 E56.76539
G1 X111.814 Y157.444 E56.85545
G1 X111.452 Y157.13 E56.89131
G1 X111.15 Y156.766 E56.92671
G1 X110.916 Y156.374 E56.96087
G1 X110.736 Y155.928 E56.99687
G1 X110.631 Y155.482 E57.03115
G1 X110.598 Y155.028 E57.06522
G1 X110.632 Y154.57 E57.09959
G1 X110.739 Y154.118 E57.13435
G1 X110.909 Y153.695 E57.16846
G1 X111.163 Y153.275 E57.2052
G1 X111.45 Y152.931 E57.23872
G1 X111.762 Y152.653 E57.27
G1 X112.092 Y152.431 E57.29976
G1 X112.843 Y152.056 E57.36258
G1 X112.837 Y151 E57.4416
G1 X112.855 Y148.863 E57.60153
G1 X114.351 Y148.863 E57.71349
G1 X114.375 Y151.973 E57.94623
G1 X115.418 Y152.63 E58.03848
G1 X115.756 Y152.93 E58.0723
G1 X116.052 Y153.289 E58.10712
G1 X116.297 Y153.697 E58.14274
G1 X116.471 Y154.13 E58.17766
G1 X116.575 Y154.574 E58.21178
G1 X116.609 Y155.028 E58.24585
G1 X116.575 Y155.488 E58.28037
G1 X116.469 Y155.938 E58.31497
G1 X116.294 Y156.371 E58.34992
G1 X116.055 Y156.768 E58.3846
G1 X115.756 Y157.128 E58.41962
G1 X115.452 Y157.4 E58.45015
G1 X115.117 Y157.627 E58.48043
G1 X114.364 Y158.003 E58.54341
G1 X114.37 Y159.059 E58.62244
G0 F3600 X113.406 Y160.924
G1 F1800 X113.12 Y160.638 E58.65271
G0 F3600 X113.114 Y159.783
G1 F1800 X114.086 Y160.755 E58.75558
G0 F3600 X114.093 Y159.914
G1 F1800 X113.108 Y158.928 E58.85988
G0 F3600 X113.101 Y158.073
G1 F1800 X114.1 Y159.072 E58.96561
G0 F3600 X114.095 Y158.219
G1 F1800 X110.87 Y154.994 E59.30692
G0 F3600 X110.982 Y154.257
G1 F1800 X114.404 Y157.679 E59.66908
G0 F3600 X114.97 Y157.397
G1 F1800 X111.241 Y153.667 E60.06378
G0 F3600 X111.597 Y153.174
G1 F1800 X115.455 Y157.033 E60.47214
G0 F3600 X115.851 Y156.581
G1 F1800 X112.053 Y152.782 E60.87415
G0 F3600 X112.598 Y152.479
G1 F1800 X116.143 Y156.024 E61.24933
G0 F3600 X116.315 Y155.347
G1 F1800 X113.113 Y152.145 E61.5882
G0 F3600 X113.108 Y151.291
G1 F1800 X116.27 Y154.454 E61.9229
G1 X116.376 Y154.56
G0 F3600 X114.1 Y151.436
G1 F1800 X113.11 Y150.446 E62.02767
G0 F3600 X113.117 Y149.604
G1 F1800 X114.093 Y150.58 E62.13097
G0 F3600 X114.087 Y149.725
G1 F1800 X113.494 Y149.132 E62.19373
G0 F3600 X111.073 Y156.045
G1 F1800 X112.729 Y157.701 E62.36899
G1 X112.835 Y157.807
G1 F1500 E55.86899
;MESH:NONMESH
G0 F600 X112.835 Y157.807 Z0.45
